lib/logo_tmp/nrk-logo-nrk-trafikk-title-below.svg

<svg width="61" height="36" viewBox="0 0 61 36" fill="none" xmlns="http://www.w3.org/2000/svg">
<path d="M0 15.0033V1.00453H4.59339V15.0033H0ZM10.8428 3.2325L13.4844 15.0033H8.45737L5.30307 1.00453H8.12254C8.76907 0.996136 9.39641 1.22405 9.88691 1.64538C10.3782 2.04903 10.7158 2.6094 10.8428 3.2325ZM14.1744 15.0033V1.00453H18.7678V15.0033H14.1744ZM22.2372 6.32804C21.7422 6.33286 21.2552 6.20336 20.828 5.95338C20.4064 5.70973 20.0563 5.35954 19.8127 4.93795C19.5624 4.51064 19.4329 4.02348 19.4378 3.52829C19.4321 3.03613 19.5618 2.55186 19.8127 2.12842C20.0589 1.71141 20.4086 1.36503 20.828 1.12286C21.2553 0.873175 21.7423 0.743689 22.2372 0.748203C22.7292 0.742904 23.2133 0.872505 23.6369 1.12286C24.0521 1.36715 24.3981 1.71324 24.6424 2.12842C24.893 2.55198 25.0226 3.03616 25.0172 3.52829C25.0218 4.02344 24.8923 4.51052 24.6424 4.93795C24.4007 5.35769 24.0542 5.70758 23.6369 5.95338C23.2133 6.20423 22.7289 6.33386 22.2366 6.32804H22.2372ZM25.7269 15.0033V1.00453H30.3207V15.0033H25.7269ZM36.136 8.65453C36.1489 8.66811 36.2475 8.82912 36.4317 9.13757C36.6159 9.44602 36.8558 9.84039 37.1513 10.3206C37.447 10.8006 37.759 11.3099 38.0874 11.8486C38.4157 12.3873 38.7247 12.8967 39.0143 13.3767C39.3028 13.8566 39.6313 14.3988 40 15.0033H34.9531C34.6375 14.4906 34.3515 14.0273 34.0952 13.6132C33.8389 13.1992 33.5665 12.7523 33.2778 12.2725C32.9884 11.7932 32.7024 11.3265 32.4196 10.8726C32.1368 10.4187 31.8938 10.0211 31.6905 9.67982C31.4863 9.33829 31.3449 9.10823 31.2663 8.98971C31.0713 8.69561 30.9559 8.35593 30.9315 8.00389C30.951 7.66601 31.0597 7.33939 31.2466 7.05722C31.3254 6.92577 31.47 6.69242 31.6803 6.35724C31.8906 6.02206 32.137 5.62448 32.4196 5.16443C32.7021 4.70438 32.9882 4.23446 33.2778 3.75469C33.5674 3.27492 33.8398 2.8247 34.0952 2.40408C34.3519 1.9839 34.6379 1.51727 34.9531 1.00421H40L36.0962 7.37267C35.9754 7.56175 35.9073 7.77966 35.8991 8.00389C35.9121 8.2393 35.9942 8.46563 36.1353 8.65453H36.136Z" fill="white"/>
<path d="M11.1376 21.0163H0V22.7496H4.53795V35.0015H6.61876V22.7496H11.1373L11.1376 21.0163Z" fill="white"/>
<path d="M15.2003 24.887C14.8298 24.986 14.4758 25.1387 14.1499 25.34C13.8119 25.5499 13.4995 25.7977 13.2186 26.0787C13.1717 26.1253 13.126 26.1772 13.0798 26.2261V24.759L11.0584 25.0544V35.0017H13.0798V27.5599C13.2299 27.4557 13.3854 27.3591 13.5455 27.2707C13.7436 27.162 13.9487 27.0664 14.1595 26.9848C14.3646 26.906 14.5724 26.8371 14.7842 26.7783C15.0016 26.7179 15.2237 26.675 15.4481 26.6499C15.6882 26.6235 15.9301 26.6169 16.1714 26.6302L16.4092 24.7786C16.003 24.7498 15.5948 24.7864 15.2003 24.887Z" fill="white"/>
<path d="M26.5758 33.7604C26.431 33.7737 26.285 33.752 26.1505 33.6971C26.0159 33.6422 25.8966 33.5558 25.8029 33.4453C25.6192 33.1296 25.5427 32.7635 25.5849 32.4013L25.6245 28.3436C25.6289 27.9182 25.5756 27.4942 25.466 27.083C25.3698 26.7223 25.2087 26.3819 24.9904 26.0784C24.7699 25.7815 24.4898 25.5334 24.168 25.3496C23.794 25.1384 23.3897 24.9856 22.969 24.8965C22.4547 24.7864 21.9295 24.7336 21.4033 24.7393C20.986 24.739 20.5692 24.7652 20.1552 24.8177C19.7639 24.8666 19.3764 24.9423 18.9955 25.0443C18.6425 25.1394 18.2952 25.2545 17.9554 25.389L17.7172 27.0632C18.0475 26.9451 18.3614 26.8466 18.6586 26.7678C18.9559 26.689 19.2432 26.6233 19.5207 26.5708C19.7925 26.519 20.0671 26.483 20.3431 26.4628C20.6137 26.4429 20.8814 26.433 21.1461 26.433C21.5502 26.4244 21.9536 26.4708 22.345 26.5708C22.6305 26.642 22.893 26.7843 23.1077 26.9845C23.2989 27.1792 23.4355 27.4203 23.5041 27.6837C23.5889 28.0085 23.629 28.3433 23.6233 28.6788L23.621 29.1712L21.3043 29.3271C20.512 29.3493 19.7315 29.5232 19.0055 29.8393C18.4622 30.0756 17.9932 30.4533 17.6479 30.9325C17.355 31.359 17.1995 31.8639 17.202 32.3803C17.1983 32.8648 17.3176 33.3424 17.5488 33.7689C17.7913 34.2071 18.156 34.5662 18.5991 34.8031C19.1398 35.0826 19.744 35.2183 20.353 35.197C20.9238 35.21 21.4919 35.1165 22.028 34.9213C22.4913 34.7411 22.9151 34.4735 23.2762 34.1333C23.4133 34.0027 23.5433 33.8649 23.6659 33.7207C23.7045 33.9246 23.7771 34.1206 23.8806 34.3008C24.0571 34.6024 24.3288 34.8378 24.6535 34.9705C25.0123 35.1137 25.3964 35.1841 25.7831 35.1773C25.902 35.1773 26.0177 35.174 26.1302 35.1675C26.2404 35.1612 26.3498 35.1447 26.4569 35.1182C26.5626 35.092 26.6581 35.069 26.7443 35.0493C26.8219 35.0321 26.8981 35.009 26.9722 34.9804L27.1905 33.6606C27.0809 33.6978 26.968 33.7242 26.8532 33.7394C26.7613 33.7522 26.6687 33.7592 26.5758 33.7604ZM23.6055 32.5638C23.5046 32.6764 23.3941 32.7802 23.2752 32.874C23.0603 33.0428 22.8277 33.1881 22.5816 33.3074C22.3364 33.4259 22.0766 33.512 21.8089 33.5634C21.5314 33.6167 21.2494 33.6431 20.9668 33.6422C20.6437 33.6514 20.3224 33.591 20.0251 33.4649C19.7833 33.3607 19.5794 33.1854 19.4407 32.9627C19.3033 32.7266 19.2347 32.4572 19.2425 32.1846C19.2234 31.8562 19.314 31.5308 19.5002 31.2588C19.7159 31.0085 20.0083 30.8355 20.3325 30.7664C20.8388 30.648 21.3584 30.595 21.8784 30.6088H23.6137L23.6055 32.5638Z" fill="white"/>
<path d="M34.0369 20.2875C33.8321 20.2481 33.6241 20.2186 33.4127 20.1989C33.2013 20.1792 32.9767 20.1693 32.7388 20.1693C32.3083 20.1666 31.8801 20.2331 31.4709 20.3663C31.0819 20.4935 30.7263 20.7055 30.4304 20.9868C30.124 21.2831 29.8873 21.6429 29.7368 22.0406C29.5616 22.52 29.4775 23.0276 29.4891 23.5376V24.9558H28.0028V26.4922H29.4891V35.0015H31.5105V26.4922H34.2849V24.9558H31.5105V23.3209C31.5061 23.0962 31.5431 22.8726 31.6195 22.6611C31.6842 22.4823 31.7892 22.3206 31.9263 22.1883C32.07 22.0571 32.2435 21.9625 32.432 21.9126C32.6545 21.8512 32.8846 21.8214 33.1154 21.8239C33.2743 21.8239 33.4255 21.8308 33.5715 21.8436C33.7175 21.8564 33.8586 21.8764 33.9976 21.9027C34.1367 21.929 34.2681 21.9552 34.394 21.9815C34.5059 22.0036 34.6154 22.0366 34.721 22.08L34.6417 20.4451C34.4438 20.3795 34.2417 20.3268 34.0369 20.2875Z" fill="white"/>
<path d="M36.2464 35.0017H38.2678V24.759L36.2464 25.0544V35.0017Z" fill="white"/>
<path d="M37.9805 20.6321C37.7748 20.5071 37.5378 20.4423 37.2968 20.4449C37.0527 20.443 36.8127 20.5077 36.6031 20.6321C36.3965 20.7524 36.2229 20.9215 36.0978 21.1245C35.9719 21.3289 35.9067 21.5645 35.9095 21.8041C35.9074 22.0467 35.9725 22.2852 36.0978 22.4935C36.219 22.6995 36.3935 22.8695 36.6031 22.9859C36.8148 23.1043 37.054 23.1653 37.2968 23.1632C37.5365 23.166 37.7727 23.1048 37.9805 22.9859C38.1844 22.8687 38.3522 22.6984 38.466 22.4935C38.5851 22.2831 38.6466 22.0454 38.6444 21.8041C38.6473 21.5658 38.5857 21.331 38.466 21.1245C38.3483 20.9225 38.1813 20.7531 37.9805 20.6321Z" fill="white"/>
<path d="M49.9801 24.9558H47.5029L44.1118 28.6589H43.3808V20.1298L41.3594 20.4253V35.0015H43.3808V30.1756H43.4139L47.463 35.0015H50.0789L45.2718 29.6175L49.9801 24.9558Z" fill="white"/>
<path d="M55.6761 29.5657L60.3844 24.9039H57.9072L54.5161 28.6071H53.7851V20.0784L51.7637 20.3738V34.95H53.7851V30.1241H53.8181L57.8673 34.95H60.4832L55.6761 29.5657Z" fill="white"/>
</svg>

<svg xmlns="http://www.w3.org/2000/svg" viewBox="0 0 61 36"><path fill="#fff" d="M0 15.003V1.005h4.593v13.998H0Zm10.843-11.77 2.641 11.77H8.457L5.303 1.005h2.82a2.655 2.655 0 0 1 1.764.64c.491.404.829.964.956 1.587Zm3.331 11.77V1.005h4.594v13.998h-4.594Zm8.063-8.675a2.737 2.737 0 0 1-1.409-.375 2.778 2.778 0 0 1-1.015-1.015 2.735 2.735 0 0 1-.375-1.41 2.685 2.685 0 0 1 .375-1.4 2.812 2.812 0 0 1 3.824-1.005c.415.244.761.59 1.005 1.005.251.424.38.908.375 1.4.005.495-.125.983-.375 1.41a2.8 2.8 0 0 1-1.005 1.015c-.424.251-.908.38-1.4.375Zm3.49 8.675V1.005h4.594v13.998h-4.594Zm10.409-6.348c.013.013.111.174.296.483.184.308.424.702.72 1.183a384.573 384.573 0 0 1 1.862 3.056c.289.48.617 1.022.986 1.626h-5.047l-.858-1.39c-.256-.414-.529-.86-.817-1.34-.29-.48-.576-.947-.858-1.4a71.236 71.236 0 0 1-.73-1.193 21.112 21.112 0 0 0-.424-.69 2.04 2.04 0 0 1-.334-.986c.019-.338.128-.665.315-.947.078-.131.223-.365.433-.7a216.7 216.7 0 0 0 1.598-2.603l.817-1.35.858-1.4H40l-3.904 6.369c-.12.189-.189.407-.197.63.013.236.095.463.236.652h.001ZM11.138 21.016H0v1.734h4.538v12.252h2.08V22.75h4.52v-1.734ZM15.2 24.887a3.93 3.93 0 0 0-1.05.453c-.338.21-.65.458-.931.739-.047.046-.093.098-.14.147V24.76l-2.02.295v9.948h2.02V27.56a5.115 5.115 0 0 1 1.08-.575c.206-.079.413-.148.625-.207a4.242 4.242 0 0 1 1.387-.148l.238-1.851a3.804 3.804 0 0 0-1.209.108ZM26.576 33.76a.906.906 0 0 1-.773-.315 1.687 1.687 0 0 1-.218-1.044l.04-4.057a4.705 4.705 0 0 0-.159-1.261 3.08 3.08 0 0 0-.476-1.005 2.68 2.68 0 0 0-.822-.728 4.214 4.214 0 0 0-1.199-.454 7.112 7.112 0 0 0-1.566-.157c-.417 0-.834.026-1.248.079a8.612 8.612 0 0 0-1.16.226c-.353.095-.7.21-1.04.345l-.238 1.674a11.755 11.755 0 0 1 1.804-.492 7.2 7.2 0 0 1 .822-.108c.27-.02.538-.03.803-.03a4.46 4.46 0 0 1 1.199.138c.286.071.548.213.763.413.19.195.328.436.396.7.085.325.125.66.12.995l-.003.492-2.317.156a6.193 6.193 0 0 0-2.298.512 3.29 3.29 0 0 0-1.358 1.094 2.535 2.535 0 0 0-.446 1.447c-.004.485.116.962.347 1.389.242.438.607.797 1.05 1.034a3.55 3.55 0 0 0 1.754.394 4.59 4.59 0 0 0 1.675-.276c.463-.18.887-.447 1.248-.788.137-.13.267-.268.39-.412.038.204.111.4.215.58.176.301.448.537.773.67a2.91 2.91 0 0 0 1.13.206c.118 0 .234-.003.346-.01.11-.006.22-.022.327-.049l.287-.069c.078-.017.154-.04.228-.069l.218-1.32c-.11.038-.222.064-.337.08-.092.012-.184.02-.277.02Zm-2.97-1.196c-.101.112-.212.216-.33.31a3.822 3.822 0 0 1-.694.433 3.134 3.134 0 0 1-.773.256 4.39 4.39 0 0 1-.842.08 2.248 2.248 0 0 1-.942-.178 1.29 1.29 0 0 1-.584-.502 1.464 1.464 0 0 1-.198-.778c-.02-.329.071-.654.257-.926.216-.25.508-.424.832-.493a6.08 6.08 0 0 1 1.546-.157h1.736l-.009 1.955ZM34.037 20.288a6.488 6.488 0 0 0-1.298-.119 4.015 4.015 0 0 0-1.268.197c-.39.128-.745.34-1.04.62a2.888 2.888 0 0 0-.694 1.055 4.09 4.09 0 0 0-.248 1.497v1.418h-1.486v1.536h1.486v8.51h2.021v-8.51h2.775v-1.536H31.51V23.32a1.836 1.836 0 0 1 .108-.66c.065-.179.17-.34.307-.473.144-.13.317-.226.506-.275.222-.062.453-.092.683-.09.16 0 .31.008.456.02.147.013.288.033.427.06.139.026.27.052.396.079.112.022.221.055.327.098l-.08-1.635a4.794 4.794 0 0 0-.604-.157ZM36.246 35.002h2.022V24.759l-2.022.295v9.948ZM37.98 20.632a1.29 1.29 0 0 0-.683-.187 1.339 1.339 0 0 0-.694.187c-.206.12-.38.29-.505.492-.126.205-.191.44-.188.68-.003.243.063.481.188.69.121.206.296.375.505.492.212.118.451.18.694.177.24.003.476-.058.684-.177.203-.117.371-.288.485-.492.12-.21.18-.449.178-.69a1.323 1.323 0 0 0-.178-.68 1.395 1.395 0 0 0-.486-.492ZM49.98 24.956h-2.477l-3.391 3.703h-.731v-8.53l-2.022.296v14.576h2.022v-4.825h.033l4.049 4.826h2.616l-4.807-5.385 4.708-4.661ZM55.676 29.566l4.708-4.662h-2.477l-3.39 3.703h-.732v-8.529l-2.021.296V34.95h2.021v-4.826h.033l4.05 4.826h2.615l-4.807-5.384Z"/></svg>
